img/comment-outlined.svg

<svg fill="none" height="15" viewBox="0 0 17 15" width="17" xmlns="http://www.w3.org/2000/svg"><path d="m15.4729 9.72083v.00005l.005-.00845c.5033-.8652.7681-1.8426.7673-2.83758 0-.00027 0-.00054 0-.00081l.0009-.33859c0-.01897-.001-.03793-.0031-.05678-.1801-1.61395-.9671-3.104-2.2062-4.18835-1.2387-1.08399-2.8433-1.687759-4.50823-1.700409v-.000015h-.00379-.38818c-1.08588-.003984-2.16037.218114-3.15061.651694-1.14515.46419-2.12976 1.23955-2.83352 2.23518-.70531.99783-1.0978 2.17362-1.12799 3.38527h-.00014l-.00002.012c-.00084.9146.22265 1.81438.64964 2.62583l-1.39511 3.66193c-.06755.1774-.02891.3777.09978.5171.12868.1395.32522.1941.5074.141l4.262-1.2425c.94329.3875 1.95811.5858 2.98318.5826 1.27369.022 2.53139-.2834 3.64489-.886 1.1152-.6035 2.0465-1.4841 2.6968-2.55317z" fill="#1c8aa9" stroke="#fff" stroke-linecap="round" stroke-linejoin="round"/></svg>

<svg width="17" height="15" viewBox="0 0 17 15" fill="none" xmlns="http://www.w3.org/2000/svg">
<path d="M15.4729 9.72083L15.4729 9.72088L15.4779 9.71243C15.9812 8.84723 16.246 7.86983 16.2452 6.87485C16.2452 6.87458 16.2452 6.87431 16.2452 6.87404L16.2461 6.53545C16.2461 6.51648 16.2451 6.49752 16.243 6.47867C16.0629 4.86472 15.2759 3.37467 14.0368 2.29032C12.7981 1.20633 11.1935 0.602561 9.52857 0.589911V0.589896H9.52478H9.1366C8.05072 0.585912 6.97623 0.80801 5.98599 1.24159C4.84084 1.70578 3.85623 2.48114 3.15247 3.47677C2.44716 4.4746 2.05467 5.65039 2.02448 6.86204L2.02434 6.86204L2.02432 6.87404C2.02348 7.78864 2.24697 8.68842 2.67396 9.49987L1.27885 13.1618C1.2113 13.3392 1.24994 13.5395 1.37863 13.6789C1.50731 13.8184 1.70385 13.873 1.88603 13.8199L6.14803 12.5774C7.09132 12.9649 8.10614 13.1632 9.13121 13.16C10.4049 13.182 11.6626 12.8766 12.7761 12.274C13.8913 11.6705 14.8226 10.7899 15.4729 9.72083Z" fill="#1C8AA9" stroke="white" stroke-linecap="round" stroke-linejoin="round"/>
</svg>
